X:1
T:Title
%%score { 1 | 2 }
L:1/8
M:6/8
K:F
V:1 treble nm="Grand Piano"
V:2 bass 
V:1
 z3 z2[Q:1/4=100] [A,CF] | [CFA]2 [CGB] [FAc]2 [FBd] | [FAc]3 [CFA]2 [A,F] | %3
 [CFA]2 [DFB] [CFA]2 [B,EG] |[M:5/8] [F,A,CF]-[F,A,CF]- [F,A,CF]3 |[M:1/8] [A,CF] | %6
[M:3/4] [CFA]2 [CGB] [FAc]2 [FBd] | [FAc]3 [CFA]2 [A,F] | [CFA]2 [DFB] [CFA]2 [B,EG] | %9
[M:5/8] [A,CF]-[A,CF]- [A,CF]3 |[M:1/8] [Fc] |[M:3/4] [Fd]2 [Fe] [Ff]2 [Fd] | c3 A2 c | %13
 [Fd]2 [Fe] [Ff]2 [Fd] |[M:5/8] c-c- c3 |[M:1/8] F |[M:3/4] A2 [GB] [Ac]2 [Bd] | %17
 [Ac]3 [CFA]2 [A,F] | [CFA]2 [DFB] [CEA]2 [B,EG] |[M:5/8] [F,A,CF]-[F,A,CF]- [F,A,CF]3 |] %20
V:2
 z3 z2 F, | F,2 F, F,2 F, | F,3 F,2 F, | F,2 B,, C,2 C, |[M:5/8] F,,-F,,- F,,3 |[M:1/8] F, | %6
[M:3/4] F,2 F, F,2 F, | F,3 F,2 F, | F,2 B,, C,2 C, |[M:5/8] F,-F,- F,3 |[M:1/8] [F,A,] | %11
[M:3/4] [B,,B,]2 [B,,C] [B,,D]2 [B,,B,] | [F,A,F]3 [F,CF]2 [F,A,F] | %13
 [B,,B,]2 [B,,C] [B,,D]2 [B,,B,] |[M:5/8] [F,A,F]-[F,A,F]- [F,A,F]3 |[M:1/8] [F,A,] | %16
[M:3/4] [F,CF]2 [F,C] [F,F]2 [F,F] | [F,F]3 F,2 F, | F,2 B,, C,2 C, |[M:5/8] F,,-F,,- F,,3 |] %20

